svgs/sharp-regular/circle-k.svg

<svg xmlns="http://www.w3.org/2000/svg" viewBox="0 0 512 512"><!--! Font Awesome Pro 6.6.0 by @fontawesome - https://fontawesome.com License - https://fontawesome.com/license (Commercial License) Copyright 2024 Fonticons, Inc. --><path d="M256 48a208 208 0 1 1 0 416 208 208 0 1 1 0-416zm0 464A256 256 0 1 0 256 0a256 256 0 1 0 0 512zM369.1 128l-64.5 0-82.5 92L208 235.8l0-83.8 0-24-48 0 0 24 0 146.5 0 61.5 0 24 48 0 0-24 0-52.3 29.1-32.5L309.2 384l57.6 0-4.8-7.3L270.3 238.3l97.9-109.1 1-1.1z"/></svg>

<svg xmlns="http://www.w3.org/2000/svg" viewBox="0 0 512 512"><!--! Font Awesome Pro 6.4.0 by @fontawesome - https://fontawesome.com License - https://fontawesome.com/license (Commercial License) Copyright 2023 Fonticons, Inc. --><path d="M256 48a208 208 0 1 1 0 416 208 208 0 1 1 0-416zm0 464A256 256 0 1 0 256 0a256 256 0 1 0 0 512zM369.1 128H304.6l-82.5 92L208 235.8V152 128H160v24V298.5 360v24h48V360 307.7l29.1-32.5L309.2 384h57.6l-4.8-7.3L270.3 238.3l97.9-109.1 1-1.1z"/></svg>
